packages/foundations/assets/icons/functional/images/arrows/chevron_left.svg

<svg xmlns="http://www.w3.org/2000/svg" width="32" height="32" fill="none"><path fill="#1A1C1F" fill-rule="evenodd" d="M19.76 7.035a1.3 1.3 0 0 0-.267.099c-.058.033-1.971 1.927-4.249 4.209-3.763 3.769-4.148 4.172-4.204 4.385-.066.251-.036.53.081.75.04.075 1.939 1.999 4.222 4.278 4.375 4.366 4.256 4.259 4.71 4.256.183-.001.535-.171.678-.326.141-.153.282-.476.282-.644-.001-.442.068-.365-3.857-4.295L13.414 16l3.742-3.747C21.024 8.38 21.013 8.393 21.013 8c0-.317-.252-.735-.526-.876a1.26 1.26 0 0 0-.727-.089"/></svg>

<svg width="32" height="32" viewBox="0 0 32 32" fill="none" xmlns="http://www.w3.org/2000/svg"><path d="M19.760 7.035 C 19.672 7.057,19.552 7.101,19.493 7.134 C 19.435 7.167,17.522 9.061,15.244 11.343 C 11.481 15.112,11.096 15.515,11.040 15.728 C 10.974 15.979,11.004 16.258,11.121 16.478 C 11.161 16.553,13.060 18.477,15.343 20.756 C 19.718 25.122,19.599 25.015,20.053 25.012 C 20.236 25.011,20.588 24.841,20.731 24.686 C 20.872 24.533,21.013 24.210,21.013 24.042 C 21.012 23.600,21.081 23.677,17.156 19.747 L 13.414 16.000 17.156 12.253 C 21.024 8.380,21.013 8.393,21.013 8.000 C 21.013 7.683,20.761 7.265,20.487 7.124 C 20.299 7.028,19.957 6.986,19.760 7.035 " fill="#1A1C1F" stroke="none" fill-rule="evenodd"></path></svg>
